X:1
T:KC's Reel
R:reel
C:Jeff Lindqvist <jeff_lindqvist:SPRAY.SE> irtrad-l 2000-11-20
H:Nov 20, -00
N:Composed for (and specially ordered by) Katherine Cleary, who has got a
N:B/C accordion. DADGAD.
M:C|
L:1/8
K:Gm
|:~D2FA ABGF | EGBD B,CDF | GABd fgdc | BdcB AGFC |
DFAF BG~G2 | AGFG ~D2FD | EDCD EFGB | ABcA BG~G2 :|
|:DB,~B,2 FB,CD | DFGA BAGF | DB,~B,2 GFAG | FGAB ADDC |
DB,~B,2 FB,CD | DFGA BAGF | EDCD EFGB | ABcA BG~G2 :|
"My chords:"
|:"Gm"~D2FA "Gm"ABGF | "Eb"EGBD "Bb"B,CDF | "Gm"GABd "Gm"fgdc | "Gm"BdcB "Gm"AGFC |
"Dm"DFAF "Eb"BG~G2 | "F"AGFG "Bb"~D2FD | "Eb"EDCD "Eb"EFGB | "F"ABcA "Gm"BG~G2 :|
|:"Bb"DB,~B,2 "Bb"FB,CD | "Dm"DFGA "Dm"BAGF | "Eb"DB,~B,2 "Eb"GFAG | "F"FGAB "D/F#"ADDC |
"Gm"DB,~B,2 "Gm"FB,CD | "Dm"DFGA "Dm"BAGF | "Eb"EDCD "Eb"EFGB | "F"ABcA "Gm"BG~G2 :|
